X: 9541
T: Dashing White Eejit
R: reel
M: 4/4
K: Dmajor
dAA/A/A dBBd|ABde feef|dAdf egfa|gAfA efdB|
dAA/A/A dBBd|ABde feef|gAfA efdB|1 Adaf edde:|2 Adaf eddA||
Beed eBgB|faef deBd|Adde d3 f|afed efdA|
Beed eBgB|faef deBd|Adde d3 f|afed fddA|
Beed eBgB|faef deBd|Adde d3 f|afed efdA|
Beed eBgB|faef deBd|Adde d3 f|afeg fd d2||

